fs/line_dashes_20_regular.svg

<svg viewBox="0 0 20 20" fill="none" xmlns="http://www.w3.org/2000/svg" height="1em" width="1em">
  <path d="M16.8536 3.85355C17.0488 3.65829 17.0488 3.34171 16.8536 3.14645C16.6583 2.95118 16.3417 2.95118 16.1464 3.14645L15.1464 4.14645C14.9512 4.34171 14.9512 4.65829 15.1464 4.85355C15.3417 5.04882 15.6583 5.04882 15.8536 4.85355L16.8536 3.85355ZM13.8536 6.14645C14.0488 6.34171 14.0488 6.65829 13.8536 6.85355L12.8536 7.85355C12.6583 8.04882 12.3417 8.04882 12.1464 7.85355C11.9512 7.65829 11.9512 7.34171 12.1464 7.14645L13.1464 6.14645C13.3417 5.95118 13.6583 5.95118 13.8536 6.14645ZM10.8536 9.14645C11.0488 9.34171 11.0488 9.65829 10.8536 9.85355L9.85355 10.8536C9.65829 11.0488 9.34171 11.0488 9.14645 10.8536C8.95118 10.6583 8.95118 10.3417 9.14645 10.1464L10.1464 9.14645C10.3417 8.95118 10.6583 8.95118 10.8536 9.14645ZM7.85355 12.1464C8.04882 12.3417 8.04882 12.6583 7.85355 12.8536L6.85355 13.8536C6.65829 14.0488 6.34171 14.0488 6.14645 13.8536C5.95118 13.6583 5.95118 13.3417 6.14645 13.1464L7.14645 12.1464C7.34171 11.9512 7.65829 11.9512 7.85355 12.1464ZM4.85355 15.8536C5.04882 15.6583 5.04882 15.3417 4.85355 15.1464C4.65829 14.9512 4.34171 14.9512 4.14645 15.1464L3.14645 16.1464C2.95118 16.3417 2.95118 16.6583 3.14645 16.8536C3.34171 17.0488 3.65829 17.0488 3.85355 16.8536L4.85355 15.8536Z" fill="#212121"/>
</svg>

<svg viewBox="0 0 20 20" fill="none" xmlns="http://www.w3.org/2000/svg" height="1em" width="1em">
  <path d="M16.854 3.854a.5.5 0 0 0-.708-.708l-1 1a.5.5 0 0 0 .708.708l1-1Zm-3 2.292a.5.5 0 0 1 0 .708l-1 1a.5.5 0 0 1-.708-.708l1-1a.5.5 0 0 1 .708 0Zm-3 3a.5.5 0 0 1 0 .708l-1 1a.5.5 0 0 1-.708-.708l1-1a.5.5 0 0 1 .708 0Zm-3 3a.5.5 0 0 1 0 .708l-1 1a.5.5 0 0 1-.708-.708l1-1a.5.5 0 0 1 .708 0Zm-3 3.708a.5.5 0 0 0-.708-.708l-1 1a.5.5 0 0 0 .708.708l1-1Z" fill="#212121"/>
</svg>
